Apricity Icons/16/panel/fcitx-sunpinyin-panel.svg

<svg xmlns="http://www.w3.org/2000/svg" width="16" height="16" version="1.1">
 <defs>
  <style id="current-color-scheme" type="text/css">
   .ColorScheme-Text { color:#dfdfdf; } .ColorScheme-Highlight { color:#4285f4; }
  </style>
 </defs>
 <path style="fill:currentColor" class="ColorScheme-Text" d="M 8 0 A 8 8 0 0 0 0 8 A 8 8 0 0 0 2 13.277 L 2 13 L 4 13 L 4 9.0605 L 2.2227 9.9492 L 1.7773 9.0508 L 4 7.9395 L 4 5 L 2 5 L 2 4 L 4 4 L 4 2 L 5 2 L 5 4 L 6 4 L 6 5 L 5 5 L 5 7.4395 L 5.7773 7.0508 L 6.2227 7.9492 L 6.1172 8 L 8 8 L 8 5 L 7 5 L 7 4 L 8.375 4 L 7.0996 2.3008 L 7.9004 1.6992 L 9.4004 3.6992 L 9.002 4 L 10.998 4 L 10.6 3.6992 L 12.1 1.6992 L 12.9 2.3008 L 11.625 4 L 14 4 L 14 5 L 12 5 L 12 8 L 14 8 L 14 9 L 12 9 L 12 14 L 11 14 L 11 9 L 8.959 9 C 8.863 10.12 8.4822 11.031 8.0332 11.811 C 7.4122 12.881 6.3418 13.865 6.3418 13.865 L 5.6582 13.137 C 5.6582 13.137 6.6707 12.171 7.168 11.311 C 7.569 10.611 7.8719 9.9 7.9609 9 L 6 9 L 6 8.0605 L 5 8.5605 L 5 14 L 2.7188 14 A 8 8 0 0 0 8 16 A 8 8 0 0 0 16 8 A 8 8 0 0 0 8 0 z M 9 5 L 9 8 L 11 8 L 11 5 L 9 5 z"/>
</svg>

<svg xmlns="http://www.w3.org/2000/svg" width="16" height="16"><defs><style id="current-color-scheme" type="text/css"></style></defs><path d="M8 0a8 8 0 0 0-8 8 8 8 0 0 0 2 5.277V13h2V9.06l-1.777.89-.446-.9L4 7.94V5H2V4h2V2h1v2h1v1H5v2.44l.777-.39.446.9-.106.05H8V5H7V4h1.375L7.1 2.3l.8-.6 1.5 2-.398.3h1.996l-.398-.3 1.5-2 .8.6L11.625 4H14v1h-2v3h2v1h-2v5h-1V9H8.959c-.096 1.12-.477 2.031-.926 2.811-.62 1.07-1.691 2.054-1.691 2.054l-.684-.728s1.013-.966 1.51-1.826c.401-.7.704-1.411.793-2.311H6v-.94l-1 .5V14H2.719A8 8 0 0 0 8 16a8 8 0 0 0 8-8 8 8 0 0 0-8-8zm1 5v3h2V5H9z" fill="currentColor" color="#dfdfdf"/></svg>
